images/Revamp Update/feature.svg

<?xml version="1.0" encoding="UTF-8" standalone="no"?>
<!-- Created with Inkscape (http://www.inkscape.org/) -->

<svg
   width="1920"
   height="1080"
   viewBox="0 0 508 285.75"
   version="1.1"
   id="svg1"
   inkscape:export-filename="bitmap.svg"
   inkscape:export-xdpi="96"
   inkscape:export-ydpi="96"
   xmlns:inkscape="http://www.inkscape.org/namespaces/inkscape"
   xmlns:sodipodi="http://sodipodi.sourceforge.net/DTD/sodipodi-0.dtd"
   xmlns="http://www.w3.org/2000/svg"
   xmlns:svg="http://www.w3.org/2000/svg"
   xmlns:ns4="http://www.iki.fi/pav/software/textext/">
  <sodipodi:namedview
     id="namedview1"
     pagecolor="#262626"
     bordercolor="#ffffff"
     borderopacity="1"
     inkscape:showpageshadow="false"
     inkscape:pageopacity="0"
     inkscape:pagecheckerboard="true"
     inkscape:deskcolor="#a4a4a4"
     inkscape:document-units="mm"
     labelstyle="default"
     inkscape:zoom="1.4142136"
     inkscape:cx="741.75501"
     inkscape:cy="497.44962"
     inkscape:window-width="2560"
     inkscape:window-height="1566"
     inkscape:window-x="-11"
     inkscape:window-y="-11"
     inkscape:window-maximized="1"
     inkscape:current-layer="layer1" />
  <defs
     id="defs1">
    <filter
       inkscape:collect="always"
       style="color-interpolation-filters:sRGB"
       id="filter47"
       x="-3.7121948e-05"
       y="-0.0001312033"
       width="1.0000742"
       height="1.0002624">
      <feGaussianBlur
         inkscape:collect="always"
         stdDeviation="0.00039378074"
         id="feGaussianBlur47" />
    </filter>
  </defs>
  <g
     inkscape:label="Layer 1"
     inkscape:groupmode="layer"
     id="layer1">
    <rect
       style="fill:#191919;fill-opacity:1;stroke-width:0.819888"
       id="rect1"
       width="508"
       height="285.75"
       x="-7.8548279e-14"
       y="-1.9539925e-14"
       sodipodi:insensitive="true" />
    <g
       transform="matrix(9.9796198,0,0,9.9796198,126.9663,106.92903)"
       ns4:version="1.9.0"
       ns4:texconverter="pdflatex"
       ns4:pdfconverter="inkscape"
       ns4:text="$\\mathbb{GAIA}$"
       ns4:preamble="C:\Users\Sid\AppData\Roaming\inkscape\extensions\textext\default_packages.tex"
       ns4:scale="1.0"
       ns4:alignment="middle center"
       ns4:stroke-to-path="0"
       id="g2732"
       ns4:jacobian_sqrt="0.352778"
       style="opacity:0.642361;fill:#baffc2;fill-opacity:1;stroke:none;stroke-opacity:1;filter:url(#filter47)">
      <defs
         id="id-c8c06cbb-f1ed-4f52-b28c-f8ea41f9c212" />
      <g
         fill="#000000"
         fill-opacity="1"
         id="id-4ae398e9-2dab-41f3-8d6d-05111e6e0b1c"
         transform="translate(-149.087,-127.749)"
         style="fill:#baffc2;fill-opacity:1;stroke:none;stroke-opacity:1">
        <g
           transform="translate(148.712,134.765)"
           id="g6068"
           style="fill:#baffc2;fill-opacity:1;stroke:none;stroke-opacity:1">
          <path
             d="m 6.546875,-2.546875 c -0.25,0.328125 -0.25,0.65625 -0.25,0.8125 v 1.015625 c -0.140625,0.078125 -0.5,0.234375 -0.890625,0.34375 0.046875,-0.15625 0.046875,-0.546875 0.046875,-0.828125 0,-0.734375 0,-1.046875 -0.328125,-1.34375 z M 3.9375,0.1875 c 0.875,0 1.75,-0.21875 2.4375,-0.5625 0.25,-0.140625 0.265625,-0.140625 0.265625,-0.421875 V -1.71875 c 0,-0.53125 0.265625,-0.78125 0.625,-0.8125 0.1875,-0.015625 0.1875,-0.15625 0.1875,-0.1875 0,-0.171875 -0.171875,-0.171875 -0.34375,-0.171875 h -2.65625 c -0.203125,0 -0.359375,0 -0.359375,0.171875 0,0.09375 0.046875,0.171875 0.1875,0.1875 0.828125,0.0625 0.828125,0.671875 0.828125,0.953125 V -0.8125 c 0,0.28125 0,0.4375 -0.296875,0.546875 C 4.5,-0.15625 4.046875,-0.15625 3.953125,-0.15625 3.546875,-0.15625 2.84375,-0.234375 2.4375,-1.28125 2.21875,-1.859375 2.125,-2.625 2.125,-3.390625 c 0,-2 0.71875,-3.28125 1.78125,-3.28125 0.90625,0 2.015625,0.9375 2.25,1.703125 0.046875,0.1875 0.078125,0.28125 0.21875,0.28125 0.171875,0 0.171875,-0.171875 0.171875,-0.34375 V -6.6875 c 0,-0.171875 0,-0.328125 -0.171875,-0.328125 -0.015625,0 -0.171875,0 -0.1875,0.171875 -0.015625,0.171875 -0.109375,0.28125 -0.3125,0.28125 -0.359375,0 -0.703125,-0.140625 -0.84375,-0.203125 -0.375,-0.171875 -0.703125,-0.25 -1.15625,-0.25 -1.65625,0 -3.5,1.046875 -3.5,3.59375 C 0.375,-1 2.03125,0.1875 3.9375,0.1875 Z m 2.25,-5.84375 c -0.15625,-0.21875 -0.34375,-0.4375 -0.5,-0.5625 0.0625,0.015625 0.140625,0.015625 0.1875,0.015625 0.109375,0 0.234375,-0.03125 0.3125,-0.078125 z M 2.546875,-0.421875 C 1.21875,-0.96875 0.71875,-2.140625 0.71875,-3.40625 c 0,-1.84375 1,-2.71875 1.9375,-3.046875 V -6.4375 c -0.25,0.25 -0.875,1.125 -0.875,3.046875 0,0.78125 0.078125,2.140625 0.765625,2.96875 z m 0,0"
             id="id-ce06df63-f3c4-4e89-b109-927d6ea031a1"
             style="fill:#baffc2;fill-opacity:1;stroke:none;stroke-opacity:1" />
        </g>
        <g
           transform="translate(156.461,134.765)"
           id="g7459"
           style="fill:#baffc2;fill-opacity:1;stroke:none;stroke-opacity:1">
          <path
             d="m 3.65625,-6.796875 c -0.0625,-0.171875 -0.09375,-0.21875 -0.203125,-0.21875 -0.109375,0 -0.15625,0.09375 -0.203125,0.203125 l -2.265625,5.96875 c -0.125,0.3125 -0.34375,0.46875 -0.609375,0.5 -0.046875,0 -0.203125,0.015625 -0.203125,0.171875 C 0.171875,0 0.328125,0 0.515625,0 h 1.59375 C 2.28125,0 2.4375,0 2.4375,-0.171875 2.4375,-0.328125 2.296875,-0.34375 2.21875,-0.34375 2.078125,-0.359375 1.828125,-0.40625 1.828125,-1 c 0,-0.328125 0.078125,-0.640625 0.140625,-0.96875 h 2.203125 c 0.34375,0.984375 0.359375,1.140625 0.359375,1.34375 -0.234375,0.25 -0.515625,0.265625 -0.625,0.28125 -0.09375,0 -0.171875,0.078125 -0.171875,0.171875 C 3.734375,0 3.890625,0 4.0625,0 H 6.671875 C 6.84375,0 7.015625,0 7.015625,-0.171875 7.015625,-0.3125 6.875,-0.34375 6.78125,-0.34375 6.5625,-0.390625 6.40625,-0.5625 6.203125,-1 Z M 2.078125,-2.3125 c 0.21875,-0.875 0.546875,-1.71875 0.875,-2.5625 0.3125,0.671875 0.90625,2.109375 1.078125,2.5625 z M 1.484375,-1.203125 1.5,-1.1875 v 0.09375 C 1.484375,-1.0625 1.484375,-1.0625 1.484375,-1 c 0,0.046875 0,0.421875 0.140625,0.65625 H 1.09375 C 1.21875,-0.484375 1.25,-0.609375 1.3125,-0.765625 Z M 3.09375,-5.40625 3.453125,-6.375 5.875,-0.875 c 0.046875,0.109375 0.15625,0.34375 0.296875,0.53125 H 4.75 c 0.109375,-0.0625 0.140625,-0.203125 0.140625,-0.328125 0,-0.609375 -0.875,-2.625 -1.296875,-3.625 z m 0,0"
             id="id-baec9ab3-55ad-4775-ac58-e8146e7ca81d"
             style="fill:#baffc2;fill-opacity:1;stroke:none;stroke-opacity:1" />
        </g>
        <g
           transform="translate(163.656,134.765)"
           id="g3009"
           style="fill:#baffc2;fill-opacity:1;stroke:none;stroke-opacity:1">
          <path
             d="m 2.75,-5.90625 c 0,-0.46875 0.03125,-0.578125 0.625,-0.578125 0.140625,0 0.296875,0 0.296875,-0.171875 0,-0.171875 -0.140625,-0.171875 -0.328125,-0.171875 h -2.8125 c -0.171875,0 -0.328125,0 -0.328125,0.171875 0,0.171875 0.171875,0.171875 0.328125,0.171875 0.5625,0 0.59375,0.109375 0.59375,0.578125 v 4.984375 c 0,0.484375 -0.03125,0.578125 -0.609375,0.578125 -0.140625,0 -0.3125,0 -0.3125,0.171875 C 0.203125,0 0.359375,0 0.53125,0 h 2.8125 c 0.1875,0 0.328125,0 0.328125,-0.171875 0,-0.171875 -0.15625,-0.171875 -0.265625,-0.171875 C 2.796875,-0.34375 2.75,-0.421875 2.75,-0.921875 Z M 1.46875,-5.9375 c 0,-0.140625 0,-0.359375 -0.078125,-0.546875 H 2.5 c -0.09375,0.1875 -0.09375,0.40625 -0.09375,0.546875 v 5.046875 c 0,0.140625 0,0.359375 0.09375,0.546875 H 1.390625 C 1.46875,-0.53125 1.46875,-0.75 1.46875,-0.890625 Z m 0,0"
             id="id-fa39ca09-66ce-43fa-bce9-645e59b30803"
             style="fill:#baffc2;fill-opacity:1;stroke:none;stroke-opacity:1" />
        </g>
        <g
           transform="translate(167.53,134.765)"
           id="g3311"
           style="fill:#baffc2;fill-opacity:1;stroke:none;stroke-opacity:1">
          <path
             d="m 3.65625,-6.796875 c -0.0625,-0.171875 -0.09375,-0.21875 -0.203125,-0.21875 -0.109375,0 -0.15625,0.09375 -0.203125,0.203125 l -2.265625,5.96875 c -0.125,0.3125 -0.34375,0.46875 -0.609375,0.5 -0.046875,0 -0.203125,0.015625 -0.203125,0.171875 C 0.171875,0 0.328125,0 0.515625,0 h 1.59375 C 2.28125,0 2.4375,0 2.4375,-0.171875 2.4375,-0.328125 2.296875,-0.34375 2.21875,-0.34375 2.078125,-0.359375 1.828125,-0.40625 1.828125,-1 c 0,-0.328125 0.078125,-0.640625 0.140625,-0.96875 h 2.203125 c 0.34375,0.984375 0.359375,1.140625 0.359375,1.34375 -0.234375,0.25 -0.515625,0.265625 -0.625,0.28125 -0.09375,0 -0.171875,0.078125 -0.171875,0.171875 C 3.734375,0 3.890625,0 4.0625,0 H 6.671875 C 6.84375,0 7.015625,0 7.015625,-0.171875 7.015625,-0.3125 6.875,-0.34375 6.78125,-0.34375 6.5625,-0.390625 6.40625,-0.5625 6.203125,-1 Z M 2.078125,-2.3125 c 0.21875,-0.875 0.546875,-1.71875 0.875,-2.5625 0.3125,0.671875 0.90625,2.109375 1.078125,2.5625 z M 1.484375,-1.203125 1.5,-1.1875 v 0.09375 C 1.484375,-1.0625 1.484375,-1.0625 1.484375,-1 c 0,0.046875 0,0.421875 0.140625,0.65625 H 1.09375 C 1.21875,-0.484375 1.25,-0.609375 1.3125,-0.765625 Z M 3.09375,-5.40625 3.453125,-6.375 5.875,-0.875 c 0.046875,0.109375 0.15625,0.34375 0.296875,0.53125 H 4.75 c 0.109375,-0.0625 0.140625,-0.203125 0.140625,-0.328125 0,-0.609375 -0.875,-2.625 -1.296875,-3.625 z m 0,0"
             id="id-7e01d190-dc62-46b9-8f39-53f67f80778e"
             style="fill:#baffc2;fill-opacity:1;stroke:none;stroke-opacity:1" />
        </g>
      </g>
    </g>
  </g>
</svg>

<svg xmlns="http://www.w3.org/2000/svg" xmlns:ns4="http://www.iki.fi/pav/software/textext/" width="1920" height="1080" viewBox="0 0 508 285.75"><defs><filter id="a" width="1" height="1" x="0" y="0" style="color-interpolation-filters:sRGB"><feGaussianBlur/></filter></defs><path d="M0 0h508v285.75H0z" style="fill:#191919;fill-opacity:1;stroke-width:.819888"/><g style="opacity:.642361;fill:#baffc2;fill-opacity:1;stroke:none;stroke-opacity:1;filter:url(#a)"><g ns4:alignment="middle center" ns4:jacobian_sqrt=".353" ns4:pdfconverter="inkscape" ns4:preamble="C:\Users\Sid\AppData\Roaming\inkscape\extensions\textext\default_packages.tex" ns4:scale="1" ns4:stroke-to-path="0" ns4:texconverter="pdflatex" ns4:text="$\\mathbb{GAIA}$" ns4:version="1.9.0" fill="#000" style="fill:#baffc2;fill-opacity:1;stroke:none;stroke-opacity:1" transform="matrix(9.97962 0 0 9.97962 126.966 106.929)"><path d="M6.547-2.547c-.25.328-.25.656-.25.813V-.72c-.14.078-.5.235-.89.344.046-.156.046-.547.046-.828 0-.734 0-1.047-.328-1.344zM3.937.188c.876 0 1.75-.22 2.438-.563.25-.14.266-.14.266-.422v-.922c0-.531.265-.781.625-.812.187-.016.187-.156.187-.188 0-.172-.172-.172-.344-.172H4.453c-.203 0-.36 0-.36.172 0 .094.048.172.188.188.828.062.828.672.828.953v.766c0 .28 0 .437-.296.546-.313.11-.766.11-.86.11-.406 0-1.11-.078-1.515-1.125-.22-.578-.313-1.344-.313-2.11 0-2 .719-3.28 1.781-3.28.906 0 2.016.937 2.25 1.702.047.188.078.282.219.282.172 0 .172-.172.172-.344v-1.657c0-.171 0-.328-.172-.328-.016 0-.172 0-.188.172-.015.172-.109.282-.312.282-.36 0-.703-.141-.844-.204a2.561 2.561 0 0 0-1.156-.25c-1.656 0-3.5 1.047-3.5 3.594C.375-1 2.031.188 3.938.188Zm2.25-5.844a3.028 3.028 0 0 0-.5-.563c.063.016.141.016.188.016a.66.66 0 0 0 .313-.078zM2.547-.422C1.219-.969.719-2.14.719-3.406c0-1.844 1-2.719 1.937-3.047v.016c-.25.25-.875 1.125-.875 3.046 0 .782.078 2.141.766 2.97zm0 0" style="fill:#baffc2;fill-opacity:1;stroke:none;stroke-opacity:1" transform="translate(-.375 7.016)"/><path d="M3.656-6.797c-.062-.172-.094-.219-.203-.219-.11 0-.156.094-.203.204L.984-.845c-.125.313-.343.469-.609.5-.047 0-.203.016-.203.172C.172 0 .328 0 .516 0h1.593c.172 0 .329 0 .329-.172 0-.156-.141-.172-.22-.172-.14-.015-.39-.062-.39-.656 0-.328.078-.64.14-.969h2.204c.344.985.36 1.14.36 1.344-.235.25-.516.266-.626.281a.173.173 0 0 0-.172.172c0 .172.157.172.329.172h2.609c.172 0 .344 0 .344-.172 0-.14-.141-.172-.235-.172C6.563-.39 6.406-.563 6.203-1ZM2.078-2.313c.219-.874.547-1.718.875-2.562.313.672.906 2.11 1.078 2.563zm-.594 1.11.016.016v.093c-.016.032-.016.032-.016.094 0 .047 0 .422.141.656h-.531c.125-.14.156-.265.218-.422Zm1.61-4.203.36-.969 2.421 5.5c.047.11.156.344.297.531H4.75c.11-.062.14-.203.14-.328 0-.61-.874-2.625-1.296-3.625zm0 0" style="fill:#baffc2;fill-opacity:1;stroke:none;stroke-opacity:1" transform="translate(7.374 7.016)"/><path d="M2.75-5.906c0-.469.031-.578.625-.578.14 0 .297 0 .297-.172s-.14-.172-.328-.172H.53c-.172 0-.328 0-.328.172s.172.172.328.172c.563 0 .594.109.594.578v4.984c0 .485-.031.578-.61.578-.14 0-.312 0-.312.172S.36 0 .531 0h2.813c.187 0 .328 0 .328-.172s-.156-.172-.266-.172c-.61 0-.656-.078-.656-.578Zm-1.281-.032c0-.14 0-.359-.078-.546H2.5c-.094.187-.094.406-.094.546V-.89c0 .141 0 .36.094.547H1.39C1.47-.53 1.47-.75 1.47-.89Zm0 0" style="fill:#baffc2;fill-opacity:1;stroke:none;stroke-opacity:1" transform="translate(14.569 7.016)"/><path d="M3.656-6.797c-.062-.172-.094-.219-.203-.219-.11 0-.156.094-.203.204L.984-.845c-.125.313-.343.469-.609.5-.047 0-.203.016-.203.172C.172 0 .328 0 .516 0h1.593c.172 0 .329 0 .329-.172 0-.156-.141-.172-.22-.172-.14-.015-.39-.062-.39-.656 0-.328.078-.64.14-.969h2.204c.344.985.36 1.14.36 1.344-.235.25-.516.266-.626.281a.173.173 0 0 0-.172.172c0 .172.157.172.329.172h2.609c.172 0 .344 0 .344-.172 0-.14-.141-.172-.235-.172C6.563-.39 6.406-.563 6.203-1ZM2.078-2.313c.219-.874.547-1.718.875-2.562.313.672.906 2.11 1.078 2.563zm-.594 1.11.016.016v.093c-.016.032-.016.032-.016.094 0 .047 0 .422.141.656h-.531c.125-.14.156-.265.218-.422Zm1.61-4.203.36-.969 2.421 5.5c.047.11.156.344.297.531H4.75c.11-.062.14-.203.14-.328 0-.61-.874-2.625-1.296-3.625zm0 0" style="fill:#baffc2;fill-opacity:1;stroke:none;stroke-opacity:1" transform="translate(18.443 7.016)"/></g></g></svg>
